static/img/kroki/e3412f382d5ffccb74fa550974d80003.svg

<?xml version="1.0" encoding="us-ascii" standalone="no"?><svg xmlns="http://www.w3.org/2000/svg" xmlns:xlink="http://www.w3.org/1999/xlink" contentStyleType="text/css" height="374px" preserveAspectRatio="none" style="width:256px;height:374px;" version="1.1" viewBox="0 0 256 374" width="256px" zoomAndPan="magnify"><defs/><g><!--class kubernetes_cluster_role--><g id="elem_kubernetes_cluster_role"><rect codeLine="23" fill="#3D176E" height="39.7891" id="kubernetes_cluster_role" rx="2.5" ry="2.5" style="stroke:#000D19;stroke-width:0.5;" width="242" x="7" y="328.58"/><ellipse cx="22" cy="348.4745" fill="#ADD1B2" rx="11" ry="11" style="stroke:#181818;stroke-width:1.0;"/><path d="M24.9688,354.1152 Q24.3906,354.412 23.75,354.5527 Q23.1094,354.7089 22.4063,354.7089 Q19.9063,354.7089 18.5781,353.0683 Q17.2656,351.412 17.2656,348.287 Q17.2656,345.162 18.5781,343.5058 Q19.9063,341.8495 22.4063,341.8495 Q23.1094,341.8495 23.75,342.0058 Q24.4063,342.162 24.9688,342.4589 L24.9688,345.1777 Q24.3438,344.5995 23.75,344.3339 Q23.1563,344.0527 22.5313,344.0527 Q21.1875,344.0527 20.5,345.1308 Q19.8125,346.1933 19.8125,348.287 Q19.8125,350.3808 20.5,351.4589 Q21.1875,352.5214 22.5313,352.5214 Q23.1563,352.5214 23.75,352.2558 Q24.3438,351.9745 24.9688,351.3964 L24.9688,354.1152 Z " fill="#000000"/><text fill="#D9B8FF" font-family="Helvetica" font-size="17" lengthAdjust="spacing" textLength="200" x="41" y="354.3598">kubernetes_cluster_role</text></g><!--class kubernetes_resource--><g id="elem_kubernetes_resource"><rect codeLine="26" fill="#3D176E" height="39.7891" id="kubernetes_resource" rx="2.5" ry="2.5" style="stroke:#000D19;stroke-width:0.5;" width="216" x="20" y="167.79"/><ellipse cx="35" cy="187.6845" fill="#ADD1B2" rx="11" ry="11" style="stroke:#181818;stroke-width:1.0;"/><path d="M37.9688,193.3252 Q37.3906,193.622 36.75,193.7627 Q36.1094,193.9189 35.4063,193.9189 Q32.9063,193.9189 31.5781,192.2783 Q30.2656,190.622 30.2656,187.497 Q30.2656,184.372 31.5781,182.7158 Q32.9063,181.0595 35.4063,181.0595 Q36.1094,181.0595 36.75,181.2158 Q37.4063,181.372 37.9688,181.6689 L37.9688,184.3877 Q37.3438,183.8095 36.75,183.5439 Q36.1563,183.2627 35.5313,183.2627 Q34.1875,183.2627 33.5,184.3408 Q32.8125,185.4033 32.8125,187.497 Q32.8125,189.5908 33.5,190.6689 Q34.1875,191.7314 35.5313,191.7314 Q36.1563,191.7314 36.75,191.4658 Q37.3438,191.1845 37.9688,190.6064 L37.9688,193.3252 Z " fill="#000000"/><text fill="#D9B8FF" font-family="Helvetica" font-size="17" lengthAdjust="spacing" textLength="174" x="54" y="193.5698">kubernetes_resource</text></g><!--class resource--><g id="elem_resource"><rect codeLine="29" fill="#3D176E" height="39.7891" id="resource" rx="2.5" ry="2.5" style="stroke:#000D19;stroke-width:0.5;" width="113" x="71.5" y="7"/><ellipse cx="86.5" cy="26.8945" fill="#ADD1B2" rx="11" ry="11" style="stroke:#181818;stroke-width:1.0;"/><path d="M89.4688,32.5352 Q88.8906,32.832 88.25,32.9727 Q87.6094,33.1289 86.9063,33.1289 Q84.4063,33.1289 83.0781,31.4883 Q81.7656,29.832 81.7656,26.707 Q81.7656,23.582 83.0781,21.9258 Q84.4063,20.2695 86.9063,20.2695 Q87.6094,20.2695 88.25,20.4258 Q88.9063,20.582 89.4688,20.8789 L89.4688,23.5977 Q88.8438,23.0195 88.25,22.7539 Q87.6563,22.4727 87.0313,22.4727 Q85.6875,22.4727 85,23.5508 Q84.3125,24.6133 84.3125,26.707 Q84.3125,28.8008 85,29.8789 Q85.6875,30.9414 87.0313,30.9414 Q87.6563,30.9414 88.25,30.6758 Q88.8438,30.3945 89.4688,29.8164 L89.4688,32.5352 Z " fill="#000000"/><text fill="#D9B8FF" font-family="Helvetica" font-size="17" lengthAdjust="spacing" textLength="71" x="105.5" y="32.7798">resource</text></g><!--reverse link kubernetes_resource to kubernetes_cluster_role--><g id="link_kubernetes_resource_kubernetes_cluster_role"><path codeLine="32" d="M128,225.84 C128,256.36 128,297.69 128,328.25 " fill="none" id="kubernetes_resource-backto-kubernetes_cluster_role" style="stroke:#FFAF37;stroke-width:2.0;"/><polygon fill="none" points="128,207.84,122,225.84,134,225.84,128,207.84" style="stroke:#FFAF37;stroke-width:2.0;"/></g><!--reverse link resource to kubernetes_resource--><g id="link_resource_kubernetes_resource"><path codeLine="33" d="M128,65.05 C128,95.57 128,136.9 128,167.46 " fill="none" id="resource-backto-kubernetes_resource" style="stroke:#FFAF37;stroke-width:2.0;"/><polygon fill="none" points="128,47.05,122,65.05,134,65.05,128,47.05" style="stroke:#FFAF37;stroke-width:2.0;"/></g><!--SRC=[XPBDQiCm48JlUWf1pWQxeNKClQI6qbv2QNeFihMAXMN9hEI6zEVT6pTDaQqukUvysfbPL4aE59hMxMa3JG5eYQsbRXcoXYuHpIutoY2T2S74F1sBZqQxgy2ADK2VGBs3aoKR4s-LB6iDrj8RJtfWPRr5qsb-NE-GQNkGG3kFoXMpTkaSog9pu8NXMR4GOaoEbyxcF4dl8C0CSi0_98vZdcHZvAhLnTx_n5f-04tyewsCWo1cOF5BNKpP4rx8eEX9dypumZYNUajllTdhCHDgmC5yNJ5kTZqjcBA-ZNM0ODo-XJne1Tc2Y_Gi_3m5ax8_7Qsxmq_LuC1kIjNrxpPe5D1FGhv31C6Q3ik1F9oTW- -_eYYQSYBJs4aXFm00]--></g></svg>

<svg xmlns="http://www.w3.org/2000/svg" width="256" height="374" viewBox="0 0 256 374"><rect width="242" height="39.789" x="7" y="328.58" fill="#3D176E" rx="2.5" ry="2.5" style="stroke:#000d19;stroke-width:.5"/><circle cx="22" cy="348.474" r="11" fill="#ADD1B2" style="stroke:#181818;stroke-width:1"/><path d="M24.969 354.115q-.578.297-1.219.438-.64.156-1.344.156-2.5 0-3.828-1.64-1.312-1.657-1.312-4.782t1.312-4.781q1.328-1.656 3.828-1.656.703 0 1.344.156.656.156 1.219.453v2.719q-.625-.579-1.219-.844-.594-.281-1.219-.281-1.343 0-2.031 1.078-.687 1.062-.687 3.156t.687 3.172q.688 1.062 2.031 1.062.625 0 1.219-.265.594-.281 1.219-.86z"/><text x="41" y="354.36" fill="#D9B8FF" font-family="Helvetica" font-size="17" textLength="200">kubernetes_cluster_role</text><rect width="216" height="39.789" x="20" y="167.79" fill="#3D176E" rx="2.5" ry="2.5" style="stroke:#000d19;stroke-width:.5"/><circle cx="35" cy="187.685" r="11" fill="#ADD1B2" style="stroke:#181818;stroke-width:1"/><path d="M37.969 193.325q-.578.297-1.219.438-.64.156-1.344.156-2.5 0-3.828-1.64-1.312-1.657-1.312-4.782t1.312-4.781q1.328-1.656 3.828-1.656.703 0 1.344.156.656.156 1.219.453v2.719q-.625-.578-1.219-.844-.594-.281-1.219-.281-1.343 0-2.031 1.078-.687 1.062-.687 3.156t.687 3.172q.688 1.062 2.031 1.062.625 0 1.219-.265.594-.281 1.219-.86z"/><text x="54" y="193.57" fill="#D9B8FF" font-family="Helvetica" font-size="17" textLength="174">kubernetes_resource</text><rect width="113" height="39.789" x="71.5" y="7" fill="#3D176E" rx="2.5" ry="2.5" style="stroke:#000d19;stroke-width:.5"/><circle cx="86.5" cy="26.895" r="11" fill="#ADD1B2" style="stroke:#181818;stroke-width:1"/><path d="M89.469 32.535q-.578.297-1.219.438-.64.156-1.344.156-2.5 0-3.828-1.64-1.312-1.657-1.312-4.782t1.312-4.781q1.328-1.656 3.828-1.656.703 0 1.344.156.656.156 1.219.453v2.719q-.625-.578-1.219-.844-.594-.281-1.219-.281-1.344 0-2.031 1.078-.687 1.062-.687 3.156T85 29.879q.688 1.062 2.031 1.062.625 0 1.219-.265.594-.281 1.219-.86z"/><text x="105.5" y="32.78" fill="#D9B8FF" font-family="Helvetica" font-size="17" textLength="71">resource</text><path fill="none" d="M128 225.84v102.41m0-120.41-6 18h12zm0-142.79v102.41m0-120.41-6 18h12z" style="stroke:#ffaf37;stroke-width:2"/></svg>
